X:1
T:Wish Me Luck as You Wave Me Goodbye
T:Wish me luck as you wave me goodbye
T:Phil Park, Harry Parr Davies
C:Harry Parr Davies
Z:All Rights Reserved
L:1/4
M:4/4
K:C
V:1 treble nm="Electric Piano"
%%MIDI program 4
V:1
 z2 G G |"C" c2 G c | e2 c a | g4- | g2 G f | e2 G e |"G7" d2 G d |"C" c4- | c2 G G | c2 G c | %10
w: Wish me|luck as you|wave me good-|bye|* chee- ri-|o here I|go on my|way|* wish me|luck as you|
 e2 c a | g4- | g2 G f | e2 G e |"G7" d2 G d |"C" c4- | c4 |"E7" e2 B c | d2 e f |"Am" e2 A B | %20
w: wave me good-|bye|* not a|tear but a|cheer make it|gay||give me a|smile I can|keep all the|
 c2 d e |"G" d2 g2 |"D7" A2 e2 |"G7" d4- | d2 G G |"C" c2 G c | e2 c a | g4- | g2 c f | e2 G e | %30
w: while in my|heart while|I;m a-|wat|* till we|meet once a-|gain you and|I|* wish me|luck as you|
"G7" d2 a g |"C" c4- | c2 z2 |] %33
w: wave me good-|bye.-||

